ukui-icon-theme-default/scalable/mimetypes/libreoffice-spreadsheet.svg

<?xml version="1.0" encoding="utf-8"?>
<!-- Generator: Adobe Illustrator 24.0.0, SVG Export Plug-In . SVG Version: 6.00 Build 0)  -->
<svg version="1.1" id="图层_1" xmlns="http://www.w3.org/2000/svg" xmlns:xlink="http://www.w3.org/1999/xlink" x="0px" y="0px"
	 viewBox="0 0 96 96" enable-background="new 0 0 96 96" xml:space="preserve">
<title>96</title>
<g id="libreoffice">
	<g id="libreoffice-document_复制_2">
		<g id="_96">
			<g id="_48">
				
					<linearGradient id="SVGID_1_" gradientUnits="userSpaceOnUse" x1="48" y1="90" x2="48" y2="6" gradientTransform="matrix(1 0 0 -1 0 96)">
					<stop  offset="0" style="stop-color:#FFFFFF"/>
					<stop  offset="1" style="stop-color:#E2F9DE"/>
				</linearGradient>
				<path fill="url(#SVGID_1_)" d="M82,69V15c0-5-4-9-9-9H23c-5,0-9,4-9,9v66c0,5,4,9,9,9h38L82,69z"/>
				
					<linearGradient id="SVGID_2_" gradientUnits="userSpaceOnUse" x1="48" y1="90" x2="48" y2="6" gradientTransform="matrix(1 0 0 -1 0 96)">
					<stop  offset="0" style="stop-color:#29AE0C"/>
					<stop  offset="1" style="stop-color:#189103"/>
				</linearGradient>
				<path fill="url(#SVGID_2_)" d="M73,10c2.8,0,5,2.2,5,5v52.3L59.3,86H23c-2.8,0-5-2.2-5-5V15c0-2.8,2.2-5,5-5H73 M73,6H23
					c-5,0-9,4-9,9v66c0,5,4,9,9,9h38l21-21V15C82,10,78,6,73,6z"/>
			</g>
			
				<linearGradient id="SVGID_3_" gradientUnits="userSpaceOnUse" x1="63.6598" y1="-678.9703" x2="70.4798" y2="-684.6503" gradientTransform="matrix(1 0 0 -1 0 -606)">
				<stop  offset="0" style="stop-color:#29AE0C;stop-opacity:0.5"/>
				<stop  offset="1" style="stop-color:#189103;stop-opacity:0.7"/>
			</linearGradient>
			<path fill="url(#SVGID_3_)" d="M67,69h15L61,90V75C61,71.7,63.7,69,67,69z"/>
			<path fill="#21A90C" d="M26,24v31h39V24H26z"/>
			<rect x="29" y="48" fill="#CCF4C6" width="9" height="4"/>
			<rect x="29" y="41" fill="#CCF4C6" width="9" height="4"/>
			<rect x="29" y="34" fill="#CCF4C6" width="9" height="4"/>
			<rect x="29" y="27" fill="#92E285" width="9" height="4"/>
			<rect x="41" y="48" fill="#CCF4C6" width="9" height="4"/>
			<rect x="41" y="41" fill="#CCF4C6" width="9" height="4"/>
			<rect x="41" y="34" fill="#CCF4C6" width="9" height="4"/>
			<rect x="41" y="27" fill="#92E285" width="9" height="4"/>
			<rect x="53" y="48" fill="#CCF4C6" width="9" height="4"/>
			<rect x="53" y="41" fill="#CCF4C6" width="9" height="4"/>
			<rect x="53" y="34" fill="#CCF4C6" width="9" height="4"/>
			<rect x="53" y="27" fill="#92E285" width="9" height="4"/>
			<rect x="41.5" y="44.5" fill="#F2F2F2" width="27" height="18"/>
			<path fill="#999999" d="M67,46v15H43V46H67 M70,43H40v21h30V43z"/>
			<rect x="46" y="52" fill="#8ACDF4" width="4" height="9"/>
			<rect x="53" y="49" fill="#FCB270" width="4" height="12"/>
			<rect x="60" y="55" fill="#7DF48F" width="4" height="6"/>
		</g>
	</g>
</g>
</svg>

<svg xmlns="http://www.w3.org/2000/svg" xmlns:xlink="http://www.w3.org/1999/xlink" viewBox="0 0 96 96"><defs><style>.cls-1{fill:url(#未命名的渐变_20);}.cls-2{fill:url(#未命名的渐变_130);}.cls-3{fill:url(#未命名的渐变_136);}.cls-4{fill:#21a90c;}.cls-5{fill:#ccf4c6;}.cls-6{fill:#92e285;}.cls-7{fill:#f2f2f2;}.cls-8{fill:#999;}.cls-9{fill:#8acdf4;}.cls-10{fill:#fcb270;}.cls-11{fill:#7df48f;}</style><linearGradient id="未命名的渐变_20" x1="48" y1="6" x2="48" y2="90" gradientUnits="userSpaceOnUse"><stop offset="0" stop-color="#fff"/><stop offset="1" stop-color="#e2f9de"/></linearGradient><linearGradient id="未命名的渐变_130" x1="48" y1="6" x2="48" y2="90" gradientUnits="userSpaceOnUse"><stop offset="0" stop-color="#29ae0c"/><stop offset="1" stop-color="#189103"/></linearGradient><linearGradient id="未命名的渐变_136" x1="63.66" y1="774.97" x2="70.48" y2="780.65" gradientTransform="translate(0 -702)" gradientUnits="userSpaceOnUse"><stop offset="0" stop-color="#29ae0c" stop-opacity="0.5"/><stop offset="1" stop-color="#189103" stop-opacity="0.7"/></linearGradient></defs><title>96</title><g id="libreoffice"><g id="libreoffice-document_复制_2" data-name="libreoffice-document_复制 2"><g id="_96" data-name="96"><g id="_48" data-name=" 48"><path class="cls-1" d="M82,69V15a9,9,0,0,0-9-9H23a9,9,0,0,0-9,9V81a9,9,0,0,0,9,9H61Z"/><path class="cls-2" d="M73,10a5,5,0,0,1,5,5V67.34L59.34,86H23a5,5,0,0,1-5-5V15a5,5,0,0,1,5-5H73m0-4H23a9,9,0,0,0-9,9V81a9,9,0,0,0,9,9H61L82,69V15a9,9,0,0,0-9-9Z"/></g><path class="cls-3" d="M67,69H82L61,90V75A6,6,0,0,1,67,69Z"/><path class="cls-4" d="M26,24V55H65V24Z"/><rect class="cls-5" x="29" y="48" width="9" height="4"/><rect class="cls-5" x="29" y="41" width="9" height="4"/><rect class="cls-5" x="29" y="34" width="9" height="4"/><rect class="cls-6" x="29" y="27" width="9" height="4"/><rect class="cls-5" x="41" y="48" width="9" height="4"/><rect class="cls-5" x="41" y="41" width="9" height="4"/><rect class="cls-5" x="41" y="34" width="9" height="4"/><rect class="cls-6" x="41" y="27" width="9" height="4"/><rect class="cls-5" x="53" y="48" width="9" height="4"/><rect class="cls-5" x="53" y="41" width="9" height="4"/><rect class="cls-5" x="53" y="34" width="9" height="4"/><rect class="cls-6" x="53" y="27" width="9" height="4"/><rect class="cls-7" x="41.5" y="44.5" width="27" height="18"/><path class="cls-8" d="M67,46V61H43V46H67m3-3H40V64H70V43Z"/><rect class="cls-9" x="46" y="52" width="4" height="9"/><rect class="cls-10" x="53" y="49" width="4" height="12"/><rect class="cls-11" x="60" y="55" width="4" height="6"/></g></g></g></svg>
